papirus/48x48/apps/cs-panel.svg

<svg height="48" viewBox="0 0 48 48.000001" width="48" xmlns="http://www.w3.org/2000/svg"><path d="m6 6c-1.108 0-2 .892-2 2v2 28h40v-28-2c0-1.108-.892-2-2-2z" fill="#4ab3e4"/><path d="m6 42c-1.108 0-2-.892-2-2v-2h40v2c0 1.108-.892 2-2 2z" fill="#4d4d4d"/><path d="m6 6c-1.108 0-2 .892-2 2v1c0-1.108.892-2 2-2h36c1.108 0 2 .892 2 2v-1c0-1.108-.892-2-2-2z" fill="#fff" opacity=".1"/><path d="m4 39v1c0 1.108.892 2 2 2h36c1.108 0 2-.892 2-2v-1c0 1.108-.892 2-2 2h-36c-1.108 0-2-.892-2-2z" opacity=".3"/></svg>

<?xml version="1.0" encoding="UTF-8" standalone="no"?>
<svg
   xmlns:dc="http://purl.org/dc/elements/1.1/"
   xmlns:cc="http://creativecommons.org/ns#"
   xmlns:rdf="http://www.w3.org/1999/02/22-rdf-syntax-ns#"
   xmlns:svg="http://www.w3.org/2000/svg"
   xmlns="http://www.w3.org/2000/svg"
   viewBox="0 0 48 48.000001"
   version="1.1"
   width="48"
   height="48"
   id="svg4222">
  <defs
     id="defs10" />
  <metadata
     id="metadata4227">
    <rdf:RDF>
      <cc:Work
         rdf:about="">
        <dc:format>image/svg+xml</dc:format>
        <dc:type
           rdf:resource="http://purl.org/dc/dcmitype/StillImage" />
        <dc:title></dc:title>
      </cc:Work>
    </rdf:RDF>
  </metadata>
  <path
     id="rect4203"
     d="M 6 6 C 4.892 6 4 6.892 4 8 L 4 10 L 4 38 L 44 38 L 44 10 L 44 8 C 44 6.892 43.108 6 42 6 L 6 6 z "
     style="fill:#4ab3e4" />
  <path
     id="rect3328"
     d="M 6,42 C 4.892,42 4,41.108 4,40 l 0,-2 40,0 0,2 c 0,1.108 -0.892,2 -2,2 z"
     style="fill:#4d4d4d" />
  <path
     id="path3345"
     d="M 6,6 C 4.892,6 4,6.892 4,8 L 4,9 C 4,7.892 4.892,7 6,7 l 36,0 c 1.108,0 2,0.892 2,2 L 44,8 C 44,6.892 43.108,6 42,6 Z"
     style="opacity:0.1;fill:#ffffff" />
  <path
     id="path4144"
     d="M 4 39 L 4 40 C 4 41.108 4.892 42 6 42 L 42 42 C 43.108 42 44 41.108 44 40 L 44 39 C 44 40.108 43.108 41 42 41 L 6 41 C 4.892 41 4 40.108 4 39 z "
     style="fill:#000000;fill-opacity:1;opacity:0.3" />
</svg>
